X:115
%%etbk:tnset id:41,pos:1,rep:3x,ant:
%%etbk:wsite http://www.thesession.org/tunes/display/724
%%etbk:color #ffccbf
%%etbk:pldat 2016-09-07T16:10,2016-07-22T16:21,2014-09-08T18:31,2014-04-28T19:07,2014-03-22T15:13,2014-02-11T17:23,2014-02-08T14:17,2013-12-07T18:06,2013-11-19T16:22,2013-11-07T16:13
T: Callaghan's
Z: Piano Box Version by Martin Fleischmann
H: Created 2013-02-19 /  Last Modified 2016-07-22
M: 4/4
L: 1/8
R: reel
K: Dmaj
|: "D"!3!A!2!F{A}FE !2!F!1!E!2!D!1!E | !2!F!2!F!2!F!1!E !2!F!3!A!5!d!4!B | !3!A!2!F!2!FE !2!FEDE |1 !2!F!3!ABA "A"!3!F!2!EE2 :|2 "A"!2!F!3!A!1!E!3!G "D"!2!F!1!DD2 ||
|: "D"!3!A3B !3!A2!2!FF | !1!AB!3!de !5!f!4!ee2 | !5!fedB  !1!A!2!B!3!dB | !1!AB!3!de !5!fed!2!B :|


